flaticon/hand-gestures/drag-12.svg

<svg xmlns="http://www.w3.org/2000/svg" width="32" height="32" viewBox="0 0 24 24">
    <path d="M4.320312 4.519531L3.800781 5.039062 3.800781.398438C3.800781.160156 3.640625 0 3.398438 0 3.160156 0 3 .160156 3 .398438L3 5.039062 2.480469 4.519531C2.320312 4.359375 2.078125 4.359375 1.921875 4.519531 1.761719 4.679688 1.761719 4.921875 1.921875 5.078125L3.050781 6.210938C3.117188 6.328125 3.242188 6.398438 3.398438 6.398438 3.558594 6.398438 3.683594 6.328125 3.75 6.210938L4.878906 5.078125C5.039062 4.921875 5.039062 4.679688 4.878906 4.519531 4.71875 4.359375 4.480469 4.359375 4.320312 4.519531zM20.398438 8.398438C20.039062 8.398438 19.679688 8.519531 19.398438 8.761719L19.398438 8.398438C19.398438 7.441406 18.640625 6.398438 17.601562 6.398438 17.238281 6.398438 16.878906 6.519531 16.601562 6.761719L16.601562 2C16.601562 1.039062 15.839844 0 14.800781 0 14.359375 0 13.960938.199219 13.640625.519531 13.320312.800781 13.121094 1.199219 13.039062 1.601562 12.761719 1.359375 12.398438 1.199219 12 1.199219 10.960938 1.199219 10.199219 2.238281 10.199219 3.199219L10.199219 10.480469C9.839844 9.71875 9.359375 9 8.878906 8.519531 8.238281 7.878906 6.960938 7.839844 6.238281 8.441406 6.039062 8.640625 5.359375 9.359375 6.28125 10.640625 7.121094 11.839844 7.800781 14.480469 7.800781 16 7.800781 19.199219 9.878906 20.640625 10.601562 21.039062L10.601562 23.601562C10.601562 23.839844 10.761719 24 11 24 11.238281 24 11.398438 23.839844 11.398438 23.601562L11.398438 20.800781C11.398438 20.640625 11.320312 20.519531 11.160156 20.441406 11.039062 20.398438 8.601562 19.238281 8.601562 16 8.601562 14.519531 7.960938 11.601562 6.921875 10.160156 6.640625 9.800781 6.398438 9.320312 6.761719 9.039062 7.160156 8.71875 7.960938 8.71875 8.320312 9.078125 9.320312 10.078125 10.199219 12.199219 10.199219 13.199219 10.199219 13.441406 10.359375 13.601562 10.601562 13.601562 10.839844 13.601562 11 13.441406 11 13.199219L11 3.199219C11 2.640625 11.441406 2 12 2 12.558594 2 13 2.640625 13 3.199219L13 10.800781C13 11.039062 13.160156 11.199219 13.398438 11.199219 13.640625 11.199219 13.800781 11.039062 13.800781 10.800781L13.800781 2C13.800781 1.679688 13.960938 1.320312 14.199219 1.078125 14.359375.921875 14.601562.800781 14.800781.800781 15.359375.800781 15.800781 1.441406 15.800781 2L15.800781 11.199219C15.800781 11.441406 15.960938 11.601562 16.199219 11.601562 16.441406 11.601562 16.601562 11.441406 16.601562 11.199219L16.601562 8.398438C16.601562 7.839844 17.039062 7.199219 17.601562 7.199219 18.160156 7.199219 18.601562 7.839844 18.601562 8.398438L18.601562 10.320312C18.601562 10.359375 18.601562 10.359375 18.601562 10.398438L18.601562 12C18.601562 12.238281 18.761719 12.398438 19 12.398438 19.238281 12.398438 19.398438 12.238281 19.398438 12L19.398438 10.320312C19.441406 9.800781 19.878906 9.199219 20.398438 9.199219 20.960938 9.199219 21.398438 9.839844 21.398438 10.398438L21.398438 16C21.398438 19.039062 21.398438 19.039062 20.28125 20.558594 20.199219 20.640625 20.199219 20.761719 20.199219 20.839844L20.199219 23.601562C20.199219 23.839844 20.359375 24 20.601562 24 20.839844 24 21 23.839844 21 23.601562L21 20.921875C22.199219 19.320312 22.199219 19.121094 22.199219 16L22.199219 10.398438C22.199219 9.441406 21.441406 8.398438 20.398438 8.398438zM20.398438 8.398438"/>
    <path d="M16.199219 20.398438C16.441406 20.398438 16.601562 20.238281 16.601562 20 16.601562 19.761719 16.441406 19.601562 16.199219 19.601562L15 19.601562C14.761719 19.601562 14.601562 19.761719 14.601562 20 14.601562 20.238281 14.761719 20.398438 15 20.398438zM16.601562 21.199219L14.601562 21.199219C14.359375 21.199219 14.199219 21.359375 14.199219 21.601562 14.199219 21.839844 14.359375 22 14.601562 22L16.601562 22C16.839844 22 17 21.839844 17 21.601562 17 21.359375 16.839844 21.199219 16.601562 21.199219zM16.601562 21.199219"/>
</svg>

<svg xmlns="http://www.w3.org/2000/svg" width="32" height="32" viewBox="0 0 24 24">
    <path d="M4.32 4.52l-.52.52V.397C3.8.16 3.64 0 3.399 0 3.16 0 3 .16 3 .398V5.04l-.52-.52a.385.385 0 0 0-.558 0 .385.385 0 0 0 0 .56L3.05 6.21a.383.383 0 0 0 .347.187c.16 0 .286-.07.352-.187l1.129-1.133a.385.385 0 0 0 0-.558.385.385 0 0 0-.559 0zm0 0M20.398 8.398c-.359 0-.718.122-1 .364v-.364c0-.957-.757-2-1.796-2-.364 0-.723.122-1 .364V2c0-.96-.762-2-1.801-2-.442 0-.84.2-1.16.52-.32.28-.52.68-.602 1.082A1.585 1.585 0 0 0 12 1.199c-1.04 0-1.8 1.04-1.8 2v7.281C9.84 9.72 9.36 9 8.878 8.52c-.64-.641-1.918-.68-2.64-.079-.2.2-.88.918.042 2.2.84 1.199 1.52 3.84 1.52 5.359 0 3.2 2.078 4.64 2.8 5.04v2.562c0 .238.16.398.399.398.238 0 .398-.16.398-.398V20.8c0-.16-.078-.281-.238-.36-.12-.043-2.558-1.203-2.558-4.441 0-1.48-.641-4.398-1.68-5.84-.281-.36-.524-.84-.16-1.12.398-.321 1.199-.321 1.558.038 1 1 1.88 3.121 1.88 4.121 0 .242.16.403.402.403.238 0 .398-.16.398-.403v-10C11 2.641 11.441 2 12 2c.559 0 1 .64 1 1.2v7.6c0 .24.16.4.398.4.243 0 .403-.16.403-.4V2c0-.32.16-.68.398-.922.16-.156.403-.277.602-.277.558 0 1 .64 1 1.199v9.2c0 .241.16.402.398.402.242 0 .403-.16.403-.403V8.4c0-.56.437-1.2 1-1.2.558 0 1 .64 1 1.2V12c0 .238.16.398.398.398.238 0 .398-.16.398-.398v-1.68c.043-.52.48-1.12 1-1.12.563 0 1 .64 1 1.198V16c0 3.04 0 3.04-1.117 4.559-.082.082-.082.203-.082.28v2.763c0 .238.16.398.403.398.238 0 .398-.16.398-.398v-2.68c1.2-1.602 1.2-1.8 1.2-4.922v-5.602c0-.957-.759-2-1.802-2zm0 0"/>
    <path d="M16.2 20.398c.241 0 .402-.16.402-.398 0-.238-.16-.398-.403-.398H15c-.238 0-.398.16-.398.398 0 .238.16.398.398.398zm0 0M16.602 21.2h-2c-.243 0-.403.16-.403.402 0 .238.16.398.403.398h2c.238 0 .398-.16.398-.398 0-.243-.16-.403-.398-.403zm0 0"/>
</svg>
